!!!COM: Palestrina, Giovanni Perluigi da
!!!OPR: Missa Hodie Christus Natus Est
!!!OMD: Credo
!!!OTL: Et ascendit
**kern	**kern	**kern	**kern
*Ibass	*Itenor	*Itenor	*Icalto
!Bassus	!Tenor 2	!Tenor 1	!Altus
*clefF4	*clefGv2	*clefGv2	*clefG2
*k[]	*k[]	*k[]	*k[]
*G:mix	*G:mix	*G:mix	*G:mix
*M4/2	*M4/2	*M4/2	*M4/2
=87	=87	=87	=87
1D	2.f#	1d	1a
.	4g	.	.
2r	2a	2r	2r
2D	[2d	2f	2a
=88	=88	=88	=88
1A	2d]	1e	1a
.	2c#	.	.
1d	4d	2.f	1a
.	4e	.	.
.	[2f	.	.
.	.	4g	.
=89	=89	=89	=89
1c	2f]	2a	1cc
.	2e	2.g	.
1A	1a	.	1cc
.	.	4f	.
.	.	2f	.
=90	=90	=90	=90
0c	2g	2e	0cc
.	2.f	2a	.
.	.	1g	.
.	8e	.	.
.	8d	.	.
.	2e	.	.
=91	=91	=91	=91
1d	1f	2r	2a
.	.	2f	2a
1r	1r	2e	2g
.	.	2d	2f
=92	=92	=92	=92
0r	0r	2.g	2.e
.	.	4f	4f
.	.	2e	2g
.	.	4A	[2a
.	.	4B	.
=93	=93	=93	=93
1A	1r	4c	4a]
.	.	4d	4b
.	.	4e	4cc
.	.	4f	4a
2G	2r	2g	2b
2F	2d	2d	[2a
=94	=94	=94	=94
2.E	2c	1e	2a]
.	2B	.	2g#
4E	.	.	.
2.F	2.A	1c	[1a
4G	4B	.	.
=95	=95	=95	=95
2A	2c	0r	1a]
4D	2.d	.	.
4E	.	.	.
4F	.	.	2r
4G	4e	.	.
4A	4f	.	2a
4B	4d	.	.
=96	=96	=96	=96
2c	2e	1r	2g
2d	1d	.	2f
1A	.	2r	2.e
.	2c	2e	.
.	.	.	4f
=97	=97	=97	=97
1r	2B	2d	2g
.	2A	2c	2.a
1E	1e	2.B	.
.	.	.	4g
.	.	.	4g
.	.	4c	8f
.	.	.	8e
=98	=98	=98	=98
2D	0r	2d	2f
2C	.	2.e	2.g
2.E	.	.	.
.	.	4d	4f
.	.	[2c	2e
4F	.	.	.
=99	=99	=99	=99
2G	1r	2c]	1d
2G	.	2B	.
2A	2r	2c	2c
2F	2a	2c	2f
=100	=100	=100	=100
2E	2g	2c	2g
2F	2f	2A	2a
2.C	2.e	2c	2.g
.	.	2c	.
4D	4f	.	4f
=101	=101	=101	=101
1E	1g	2B	1e
.	.	2.e	.
1C	1e	.	1g
.	.	4d	.
.	.	[2c	.
=102	=102	=102	=102
[0G	[0d	2c]	[0g
.	.	4B	.
.	.	4A	.
.	.	1B	.
=103	=103	=103	=103
0G]	0d]	0B	0g]
*-	*-	*-	*-
!!!CDT: 1525/^1526/-1594/2/2
!!!OCY: Italia
!!!AGN: Mass (Parody)
!!!AST: renaissance, vocal
!!!ASW: Motet 1575 (Palestrina)
!!!PWK: Masses, Book 8vce
!!!RNB: Cadence finals: C,D
!!!YOR: Le Opere Complete, v. 30, p. 59
!!!YOO: Rome, Italy: Fratelli Scalera
!!!END: 1992//
!!!EED: John Miller
!!!YEC: Copyright 2000, John Miller
!!!YEN: United States of America
!!!YEM: Rights to all derivative electronic formats reserved.
!!!YEM: Refer to licensing agreement for further details.
!!!YEM: This file must be accompanied by the licensing agreement.
!!!YEM: A copy of the licensing agreement may be found at http://www.music-cog.ohio-state.edu/HumdrumDatabases/Palestrina/license.txt
!!!EMD: converted to Humdrum by Bret Aarden
